!!!OTL: 1448. Die neue Jagd.
!!!ARE: Europa, Mitteleuropa, Deutschland
!!!SCT: E1448
!!!TXL: @@DE
!!!YEM: Copyright 1995, estate of Helmut Schaffrath.
**kern	**text
*ICvox	*
!! Mixed meters:  4/4; 3/4; 2/4
*M4/4	*
*met(c)	*
*k[f#]	*
*G:	*
!LO:TX:a:t=[Mel. Wilhelmus v. Nassouewen - Jagdweiſe v. Chartres.]	!
!LO:TX:a:t=Mel. in Thyſius Lautenb. um 1600 und Adr. Valerius 1620.	!
{4d	Mit
=1	=1
4g	Luſt
4g	vor
4a	we-
8gL	-nig
8aJ	.
=2	=2
*M2/4	*
4b	Ta-
8a}	-gen
{8b/	eim
=3	=3
*M4/4	*
*met(c)	*
4cc	Jä-
4b/	-ger
8aL	kams
8gJ	.
4a	in
=4	=4
2g	Sinn,
4r}	.
{4d	er
=5	=5
4g	wollt
4g	aus-
4a	-rei-
8gL	-ten
8aJ	.
=6	=6
*M2/4	*
4b	ja-
8a}	-gen,
{8b/	wo
=7	=7
*M4/4	*
*met(c)	*
4cc	er
4b/	mocht
8aL	kom-
8gJ	.
4a	-men
=8	=8
2g	hin
4r}	.
{8bL	ü-
8ccJ	.
=9	=9
*M3/4	*
*met(3)	*
2dd	-ber
4ee	ein
=10	=10
2dd	grü-
4cc	-ne
=11	=11
4.b/	Hei-
8a}	-de,
{4b	der
=12	=12
(4.cc	Jä-
8b)	.
4cc	-ger
=13	=13
(4dd	wohl-
4cc)	.
4b	-ge-
=14	=14
2a}	-muth
{4d	in
=15	=15
(4.g	ſei-
8a)	.
4b/	-nem
=16	=16
2a	grü-
4g	-nen
=17	=17
4.f#	Klei-
8e}	-de
{4d	mit
=18	=18
2e	ſei-
4g	-nem
=19	=19
2g	Hünd-
4f#	-lein
=20	=20
2g;}	gut.
==	==
!!!AGN: Staende -, Jaeger - Lied
!!!ONB: ESAC (Essen Associative Code) Database: ERK3
!!!AMT: irregular
!!!AIN: vox
!!!EED: Helmut Schaffrath
!!!EEV: 1.0
!!!GTL: Staendelieder (Berufslieder). 2. Jaegerlieder und Jaegerballaden.
!!!URL-scan: https://rosdok.uni-rostock.de/mcrviewer/recordIdentifier/rosdok_ppn745177999/iview2/phys_0312.iview2?x=-128.77276441889285&y=1185.1237728383858&scale=0.5870222003877487&rotation=0&layout=singlePageLayout
!!!ENC: Anna Maria Matuszewska
!!!EEV: 2024/12/31
*-	*-
